svgs/regular/cart-flatbed-suitcase.svg

<svg xmlns="http://www.w3.org/2000/svg" viewBox="0 0 640 512"><!--! Font Awesome Pro 6.6.0 by @fontawesome - https://fontawesome.com License - https://fontawesome.com/license (Commercial License) Copyright 2024 Fonticons, Inc. --><path d="M0 24C0 10.7 10.7 0 24 0L72 0c30.9 0 56 25.1 56 56l0 352c0 4.4 3.6 8 8 8l72 0 288 0 120 0c13.3 0 24 10.7 24 24s-10.7 24-24 24l-72 0c0 26.5-21.5 48-48 48s-48-21.5-48-48l-192 0c0 26.5-21.5 48-48 48s-48-21.5-48-48l-24 0c-30.9 0-56-25.1-56-56L80 56c0-4.4-3.6-8-8-8L24 48C10.7 48 0 37.3 0 24zM360 48c-4.4 0-8 3.6-8 8l0 40 96 0 0-40c0-4.4-3.6-8-8-8l-80 0zM496 96l48 0c35.3 0 64 28.7 64 64l0 128c0 35.3-28.7 64-64 64l-288 0c-35.3 0-64-28.7-64-64l0-128c0-35.3 28.7-64 64-64l48 0 0-40c0-30.9 25.1-56 56-56l80 0c30.9 0 56 25.1 56 56l0 40zM256 144c-8.8 0-16 7.2-16 16l0 128c0 8.8 7.2 16 16 16l32 0 0-160-32 0zm80 0l0 160 128 0 0-160-128 0zM544 304c8.8 0 16-7.2 16-16l0-128c0-8.8-7.2-16-16-16l-32 0 0 160 32 0z"/></svg>

<svg xmlns="http://www.w3.org/2000/svg" viewBox="0 0 640 512"><!--! Font Awesome Pro 6.4.0 by @fontawesome - https://fontawesome.com License - https://fontawesome.com/license (Commercial License) Copyright 2023 Fonticons, Inc. --><path d="M0 24C0 10.7 10.7 0 24 0H72c30.9 0 56 25.1 56 56V408c0 4.4 3.6 8 8 8h72H496 616c13.3 0 24 10.7 24 24s-10.7 24-24 24H544c0 26.5-21.5 48-48 48s-48-21.5-48-48H256c0 26.5-21.5 48-48 48s-48-21.5-48-48H136c-30.9 0-56-25.1-56-56V56c0-4.4-3.6-8-8-8H24C10.7 48 0 37.3 0 24zM360 48c-4.4 0-8 3.6-8 8V96h96V56c0-4.4-3.6-8-8-8H360zM496 96h48c35.3 0 64 28.7 64 64V288c0 35.3-28.7 64-64 64H256c-35.3 0-64-28.7-64-64V160c0-35.3 28.7-64 64-64h48V56c0-30.9 25.1-56 56-56h80c30.9 0 56 25.1 56 56V96zM256 144c-8.8 0-16 7.2-16 16V288c0 8.8 7.2 16 16 16h32V144H256zm80 0V304H464V144H336zM544 304c8.8 0 16-7.2 16-16V160c0-8.8-7.2-16-16-16H512V304h32z"/></svg>
